X: 7596
T: Coen's Memories
R: reel
M: 4/4
K: Edorian
|:EDB,A, B,EFA|B2eB dBAF|~D3F E2DB,|A,B,DF EDB,A,|
B,E~E2 DEFA|B2eB dBAF|DEFA dBAF|DEFD ~E4:|
|:Be~e2 fedB|e2fe dBAF|~A3B d2fd|edef d2BA|
Be~e2 fedB|e2fe dBAF|DEFA dBAF|DEFD ~E4:|

